icons/image-magnifying-glass-32.svg

<?xml version="1.0" encoding="UTF-8"?><svg id="icons" xmlns="http://www.w3.org/2000/svg" viewBox="0 0 32 32"><defs><style>.cls-1{fill:none;}</style></defs><path d="M5,14.35254c-.34839,.1579-.68323,.33984-1,.54828V3H30V25H14.81842l-.4472-.44727c.09955-.17786,.18115-.36627,.26605-.55273h14.36273v-3.41925l-4.49414-4.06659-3.50586,3.12305-4.99902-4.53125-2.04016,1.6944c-.19281-.27289-.40503-.53027-.63257-.77386l2.26074-1.87769c.24878-.21039,.61462-.2049,.85706,.01276l4.55396,4.13141,3.07684-2.7478c.12689-.11926,.2962-.18286,.47021-.17664s.33826,.08179,.4563,.20984l3.99664,3.66821V4H5V14.35254Zm14.01001-4.35254c0-1.10303,.88702-2,1.98999-2s2,.89697,2,2c0,1.10284-.89703,2-2,2s-1.98999-.89716-1.98999-2Zm.98999,0c0,.55127,.44824,1,1,1s1-.44873,1-1-.44824-1-1-1-1,.44873-1,1ZM2.20001,20.99994c0-3.20325,2.59674-5.79993,5.79999-5.79993s5.79999,2.59668,5.79999,5.79993c0,1.42413-.5152,2.72656-1.36682,3.73602l4.56104,4.56104c.09393,.09393,.14661,.22137,.14648,.35413-.00018,.13281-.05316,.26013-.14728,.35382-.18597,.18512-.48676,.18481-.6723-.00079l-4.57776-4.5777c-1.0105,.85547-2.31567,1.37354-3.74335,1.37354-3.20325,0-5.79999-2.59674-5.79999-5.80005Zm5.79999,4.80005c2.64661,0,4.79999-2.15338,4.79999-4.79999s-2.15338-4.79999-4.79999-4.79999-4.79999,2.15338-4.79999,4.79999,2.15338,4.79999,4.79999,4.79999Z"/><rect class="cls-1" width="32" height="32"/></svg>

<svg xmlns="http://www.w3.org/2000/svg" viewBox="0 0 32 32"><path d="M5 14.353a7.28 7.28 0 0 0-1 .548V3h26v22H14.818l-.447-.447c.1-.178.181-.367.266-.553H29v-3.42l-4.494-4.066L21 19.637l-4.999-4.531-2.04 1.694a7.338 7.338 0 0 0-.633-.773l2.261-1.878a.652.652 0 0 1 .857.013L21 18.293l3.077-2.748a.653.653 0 0 1 .926.033L29 19.247V4H5v10.353zM19.01 10c0-1.103.887-2 1.99-2s2 .897 2 2-.897 2-2 2-1.99-.897-1.99-2zm.99 0a1 1 0 1 0 1.998-.002A1 1 0 0 0 20 10zM2.2 21a5.8 5.8 0 1 1 10.233 3.736l4.561 4.561a.5.5 0 0 1 0 .708.476.476 0 0 1-.673 0l-4.578-4.579A5.773 5.773 0 0 1 8 26.8 5.8 5.8 0 0 1 2.2 21zM8 25.8c2.647 0 4.8-2.153 4.8-4.8s-2.153-4.8-4.8-4.8-4.8 2.153-4.8 4.8 2.153 4.8 4.8 4.8z"/><path fill="none" d="M0 0h32v32H0z"/></svg>
